src/components/icon/assets/share.svg

<svg xmlns="http://www.w3.org/2000/svg" xmlns:xlink="http://www.w3.org/1999/xlink" width="16" height="16" viewBox="0 0 16 16">
  <defs>
    <path id="share-a" d="M4,6.81092456 L4,13.1890754 C4,13.6827785 4.4476522,14.0909091 4.99201702,14.0909091 L12.007983,14.0909091 C12.5510564,14.0909091 13,13.6839525 13,13.1890754 L13,6.81092456 C13,6.3172215 12.5523478,5.90909091 12.007983,5.90909091 L4.99201702,5.90909091 C4.44894365,5.90909091 4,6.31604746 4,6.81092456 Z M3,6.81092456 C3,5.81077854 3.90017617,5 4.99201702,5 L12.007983,5 C13.1081436,5 14,5.81834197 14,6.81092456 L14,13.1890754 C14,14.1892215 13.0998238,15 12.007983,15 L4.99201702,15 C3.8918564,15 3,14.181658 3,13.1890754 L3,6.81092456 Z M7,5 L7,5.90909091 L10,5.90909091 L10,5 L7,5 Z M9,3 L9,10 L8,10 L8,3 L6,3 L8.5,0 L11,3 L9,3 Z"/>
  </defs>
  <g>
    <use xlink:href="#share-a"/>
  </g>
</svg>

<svg width="16" height="16" xmlns="http://www.w3.org/2000/svg" xmlns:xlink="http://www.w3.org/1999/xlink">
	<path d="M4 6.81v6.38c0 .493.448.9.992.9h7.016c.543 0 .992-.406.992-.9V6.81c0-.493-.448-.9-.992-.9H4.992c-.543 0-.992.406-.992.9zM7 5v.91h3V5h2.008C13.108 5 14 5.818 14 6.81v6.38c0 1-.9 1.81-1.992 1.81H4.992C3.892 15 3 14.182 3 13.19V6.81C3 5.81 3.9 5 4.992 5H7zm1.997-3.552A.506.506 0 0 1 9 1.5v8a.5.5 0 0 1-1 0v-8a.51.51 0 0 1 0-.017L6.18 3.394a.52.52 0 0 1-.77 0 .617.617 0 0 1 0-.829L7.36.515a1.552 1.552 0 0 1 2.31 0l1.95 2.05c.214.229.214.601 0 .83a.52.52 0 0 1-.77 0L8.997 1.447z" fill-rule="nonzero" />
</svg>
